packages/foundations/assets/icons/functional/images/arrows/arrow_left_32.svg

<svg width="32" height="32" viewBox="0 0 32 32" fill="none" xmlns="http://www.w3.org/2000/svg">
<g clip-path="url(#clip0_87_4)">
<path fill-rule="evenodd" clip-rule="evenodd" d="M26.0004 16.0004C26.0004 16.5634 25.5624 17.0004 25.0004 17.0004H9.4064L15.7194 23.2814C15.8134 23.3753 15.8869 23.4877 15.9353 23.6114C15.9836 23.7352 16.0058 23.8676 16.0004 24.0004C16.0004 24.5634 15.5944 25.0004 15.0004 25.0004C14.7504 25.0004 14.5004 24.9384 14.2814 24.7194L6.2814 16.7194C6.18745 16.6254 6.11398 16.513 6.06561 16.3893C6.01725 16.2656 5.99504 16.1331 6.0004 16.0004C6.0004 15.7504 6.0634 15.5004 6.2814 15.2814L14.2814 7.28138C14.3755 7.18735 14.488 7.11384 14.612 7.06547C14.7359 7.01711 14.8685 6.99495 15.0014 7.00038C15.5944 7.00038 16.0014 7.46938 16.0014 8.00038C16.0014 8.25038 15.9384 8.50038 15.7194 8.71938L9.4064 15.0004H25.0004C25.5634 15.0004 26.0004 15.4384 26.0004 16.0004Z" fill="#1A1C1F"/>
</g>
<defs>
<clipPath id="clip0_87_4">
<rect width="32" height="32" fill="white"/>
</clipPath>
</defs>
</svg>

<svg xmlns="http://www.w3.org/2000/svg" width="32" height="32" fill="none"><g clip-path="url(#a)"><path fill="#1A1C1F" fill-rule="evenodd" d="M26 16c0 .563-.438 1-1 1H9.406l6.313 6.281a.96.96 0 0 1 .281.72c0 .562-.406 1-1 1-.25 0-.5-.063-.719-.282l-8-8a.96.96 0 0 1-.28-.719c0-.25.062-.5.28-.719l8-8a.96.96 0 0 1 .72-.28c.593 0 1 .468 1 1 0 .25-.063.5-.282.718L9.406 15H25c.563 0 1 .438 1 1" clip-rule="evenodd"/></g><defs><clipPath id="a"><path fill="#fff" d="M0 0h32v32H0z"/></clipPath></defs></svg>
